X: 28
T:East Tennessee Blues
% Nottingham Music Database
S:via PR
M:4/4
L:1/4
K:C
ef ^f|:"C"g/2a/2g/2e/2 g/2a/2g/2e/2|g/2a/2g/2e/2 g/2a/2g/2e/2|
"F"c/2d/2c/2A/2 c/2d/2c/2A/2|c/2d/2c/2A/2 c/2d/2c/2A/2|\
"C"G/2A/2G/2F/2 E/2D/2E/2F/2|
"C"G/2A/2c/2d/2 "Am"e/2f/2g/2e/2| [1"D"d/2^c/2d/2e/2 ^f/2d/2e/2f/2|\
"G"g/2a/2g/2e/2 ge/2f/2:|
 [2"Dm"f/2e/2d/2c/2 "G"B/2G/2A/2B/2|"C"[ce][c/2e/2][c/2 e/2 ][ce]||
[ce]|"C"[c2-g2-][c/2g/2][c/2a/2][cg]|[c2 e2][c2e2]|\
"F"[F2-c2-][F/2c/2][F/2d/2][Fc]|
[F2A2][F2A2]|"C"G/2A/2G/2F/2 E/2D/2E/2F/2|"C"G/2A/2c/2d/2 "Am"e/2f/2g/2e/2|
"D"d/2^c/2d/2e/2 ^f/2d/2e/2f/2|"G"g/2a/2g/2e/2 ge/2f/2|\
"C"g/2a/2g/2e/2 g/2a/2g/2e/2|
P:4 0
[e2 e2 ]\
P:4 0
[e2e2]|"F"c/2d/2c/2A/2 c/2d/2c/2A/2|\
P:4 0
[A2A2]
P:4 0
[A2A2]|"C"G/2A/2G/2F/2 E/2D/2E/2F/2|"C"G/2A/2c/2d/2 "Am"e/2f/2g/2e/2|\
"Dm"f/2e/2d/2c/2 "G"B/2G/2A/2B/2|"C"+ce++c/2e/2++c/2 e/2 ++ce+||


